svgs/solid/box-circle-check.svg

<svg xmlns="http://www.w3.org/2000/svg" viewBox="0 0 576 512"><!--! Font Awesome Pro 6.2.0 by @fontawesome - https://fontawesome.com License - https://fontawesome.com/license (Commercial License) Copyright 2022 Fonticons, Inc. --><path d="M93.7 32H208V160H0L50.7 58.5C58.9 42.3 75.5 32 93.7 32zM240 32H354.3c18.2 0 34.8 10.3 42.9 26.5L448 160H416 240V32zM0 416V192H416v.7c-89.7 8.1-160 83.5-160 175.3c0 42.5 15.1 81.6 40.2 112H64c-35.3 0-64-28.7-64-64zm576-48c0 79.5-64.5 144-144 144s-144-64.5-144-144s64.5-144 144-144s144 64.5 144 144zm-76.7-43.3c-6.2-6.2-16.4-6.2-22.6 0L416 385.4l-28.7-28.7c-6.2-6.2-16.4-6.2-22.6 0s-6.2 16.4 0 22.6l40 40c6.2 6.2 16.4 6.2 22.6 0l72-72c6.2-6.2 6.2-16.4 0-22.6z"/></svg>

<svg xmlns="http://www.w3.org/2000/svg" viewBox="0 0 576 512"><!--! Font Awesome Pro 6.1.2 by @fontawesome - https://fontawesome.com License - https://fontawesome.com/license (Commercial License) Copyright 2022 Fonticons, Inc. --><path d="M208 32V160H0L50.73 58.53C58.86 42.27 75.48 32 93.67 32H208zM354.3 32C372.5 32 389.1 42.27 397.3 58.53L448 160H240V32H354.3zM0 416V192H416V192.7C326.3 200.8 256 276.2 256 368C256 410.5 271.1 449.6 296.2 480H64C28.65 480 0 451.3 0 416V416zM576 368C576 447.5 511.5 512 432 512C352.5 512 288 447.5 288 368C288 288.5 352.5 224 432 224C511.5 224 576 288.5 576 368zM476.7 324.7L416 385.4L387.3 356.7C381.1 350.4 370.9 350.4 364.7 356.7C358.4 362.9 358.4 373.1 364.7 379.3L404.7 419.3C410.9 425.6 421.1 425.6 427.3 419.3L499.3 347.3C505.6 341.1 505.6 330.9 499.3 324.7C493.1 318.4 482.9 318.4 476.7 324.7H476.7z"/></svg>
